X: 61
T:Long Odds
M:2/4
Z:alf.warnock@rogers.com
L:1/8
K:A
"A"EA AB|c2cA|"D"d2"E"dB|"A"cA "E"GF|
"A"EA AB|cd ec|"D"fd "E"BG|"A"A2A2:|
|:"D"fa gf|"A"e2e2|"E"df ed|d2"A"c2|"E"Bc dB|
"A"cd ed|[1"D"fd BA|"E"G2FE:|[2"D"fd BG|"A"A2A2|]
